X: 1779
T: Orley Benson's 5th Figure, 1st Set
B: australian traditional tunes wiki
M:2/4
L:1/8
R: Set Tune
Q: 1/4=100
K:C
V:1 
GF|:"C"E2Gc|e2-ed/B/|dc- cE|G2FE|"G7"D2B,C|B3A|1"G7"GE/G/ AG|"C"E2GF:|2"G7"GE/G/ AB|"C"c2-cB/A/||
"C"G>E GA|G>E GA|GE Gc|"G7"BA BA|"C"G>E GA|G>E Gc|"G7"BA Bd|"C"c2||
% abcbook-tune_id 6342d53a40c2b192ce2ea5fb


% abcbook-boost 0
% abcbook-tablature 
% abcbook-transpose 
% abcbook-lastupdated 1665324383380
% abcbook-soundfonts 
% abcbook-repeats 1
% NFF Book 2014

